src/assets/img/screen-blockage.svg

<svg xmlns="http://www.w3.org/2000/svg" width="652" height="421" fill="none" viewBox="0 0 652 421"><path fill="url(#a)" d="M40.59 177.77c-16.54 71.86 99.65 244.02 283.95 219.8 85.71-11.26 86.15-54.61 157.63-99.41 42.6-26.71 99.9-42.54 122.99-88.11 19.94-39.33 19.9-85.33 2.89-118.21-38.25-73.93-130.61-136.06-247.16-50.3S83.28-7.55 40.59 177.77"/><path fill="url(#b)" d="M439.34 377.4c45.68-37.58 92.95-77.86 144.02-90.26 52.68-12.8 57.01 4.95 53.6 30.41-3.42 25.45-33.21 79.95-104.82 96.32-71.62 16.37-135.55-1.29-92.8-36.47"/><path fill="#efefef" fill-rule="evenodd" d="M552.99 142.44v37.44h.01a31.4 31.4 0 0 0-16.28 1.06c-4.79 1.64-9.1 4.45-12.52 8.18a30.3 30.3 0 0 0-7.1 13.16 30.8 30.8 0 0 0-.32 13.87c.96 4.59 2.94 8.9 5.81 12.6s6.55 6.69 10.76 8.76a30.68 30.68 0 0 0 19.65 2.52v37.45a24.555 24.555 0 0 1-7.19 17.36 24.5 24.5 0 0 1-7.97 5.32 24.6 24.6 0 0 1-9.39 1.87H491v.01c1.1-5.42.73-11.04-1.06-16.28a30.37 30.37 0 0 0-8.18-12.52 30.27 30.27 0 0 0-13.16-7.1 30.65 30.65 0 0 0-13.87-.31 30.753 30.753 0 0 0-21.35 16.56 30.76 30.76 0 0 0-3.15 13.51c.01 2.06.21 4.12.62 6.14l-37.44-.01c-13.55 0-24.55-10.98-24.55-24.54v-37.45c-2.02.41-4.08.62-6.14.62-4.68 0-9.3-1.08-13.51-3.14a30.7 30.7 0 0 1-10.75-8.76c-2.88-3.7-4.86-8.01-5.82-12.6-.95-4.58-.84-9.33.32-13.87 1.23-4.91 3.67-9.43 7.1-13.16 3.42-3.73 7.73-6.54 12.52-8.17a31.2 31.2 0 0 1 16.28-1.06h-.01v-37.45c0-3.23.63-6.42 1.87-9.4a24.555 24.555 0 0 1 22.68-15.15h37.45c-.41-2.02-.61-4.08-.62-6.14.01-4.68 1.08-9.31 3.15-13.51 2.06-4.21 5.06-7.89 8.76-10.76a30.9 30.9 0 0 1 12.59-5.81c4.59-.95 9.33-.84 13.87.32 4.91 1.23 9.43 3.67 13.16 7.1s6.54 7.73 8.18 12.52A31.2 31.2 0 0 1 491 117.9h37.45c6.51 0 12.76 2.59 17.36 7.19s7.19 10.85 7.19 17.36m-413.11 22.06h37.57v-.01c-1.1 5.44-.73 11.08 1.06 16.33a30.42 30.42 0 0 0 21.41 19.69c4.55 1.16 9.31 1.27 13.91.31 4.6-.95 8.92-2.95 12.64-5.83 3.71-2.88 6.72-6.57 8.78-10.79 2.08-4.21 3.15-8.85 3.16-13.55-.01-2.07-.21-4.13-.62-6.16h37.57c3.23 0 6.43.64 9.42 1.88 2.99 1.23 5.71 3.05 7.99 5.33 2.29 2.29 4.1 5.01 5.34 8 1.24 2.98 1.87 6.19 1.87 9.42v37.57h.02c-5.45-1.1-11.08-.73-16.34 1.06-4.8 1.64-9.12 4.46-12.56 8.2a30.5 30.5 0 0 0-7.12 13.21 30.8 30.8 0 0 0-.31 13.91c.95 4.6 2.94 8.92 5.82 12.64 2.88 3.71 6.57 6.72 10.79 8.79 4.22 2.06 8.86 3.14 13.56 3.15 2.07 0 4.13-.21 6.16-.62l-.02 37.56c.01 13.6-11.01 24.62-24.61 24.63h-37.57c.41 2.02.62 4.09.62 6.16-.01 4.7-1.09 9.33-3.15 13.55a30.9 30.9 0 0 1-8.79 10.79 30.9 30.9 0 0 1-12.64 5.83c-4.6.96-9.36.85-13.91-.32a30.4 30.4 0 0 1-13.2-7.11 30.54 30.54 0 0 1-8.21-12.57 31.36 31.36 0 0 1-1.06-16.33v.01h-37.56c-3.24 0-6.44-.64-9.43-1.87-2.99-1.24-5.7-3.06-7.99-5.34-2.29-2.29-4.1-5.01-5.34-7.99-1.24-2.99-1.87-6.2-1.87-9.43v-37.57c-2.03.41-4.09.62-6.16.62-4.7-.01-9.34-1.08-13.56-3.15a30.9 30.9 0 0 1-10.79-8.79 31 31 0 0 1-5.83-12.64c-.95-4.6-.84-9.36.32-13.91 1.24-4.93 3.69-9.46 7.13-13.2 3.43-3.74 7.75-6.56 12.55-8.21a31.4 31.4 0 0 1 16.34-1.06v-37.57c0-3.23.63-6.44 1.87-9.42 1.24-2.99 3.05-5.71 5.34-8 2.29-2.28 5-4.1 7.99-5.33 2.99-1.24 6.19-1.88 9.43-1.88" clip-rule="evenodd"/><path fill="#ffb780" d="M1.66 391.39c-1.39-1.98-2.37-62.08-1-64.48s61.54-19.87 61.54-19.87 20.37-33.19 39.57-51.78c7.57-7.34 18.64-13.5 21.35-9.38 1.68 2.56-.99 9.1-4.77 15.98l-.03.06c-5.26 9.58-12.63 19.77-13.33 20.73-.02.02-.04.04-.05.07 0 0 49.91-12.68 57.43-14.04 7.52-1.38 17.34-3.57 18.9 1.51 1.44 4.67-11.27 10.13-12.03 10.45.82-.22 18.09-4.99 20.65 1.51 1.9 4.84-15.96 14-16.49 14.26.45-.12 8.96-2.36 9.86 1.68 1.48 6.66-17.05 14.33-17.81 14.65.42-.11 7.31-1.73 7.8 1.99 1.22 9.22-62.51 34.79-81.98 41.98-19.5 7.19-88.22 36.65-89.61 34.68M650.34 61.14c1.39 1.96 2.37 61.68 1 64.07-1.37 2.38-61.53 19.75-61.53 19.75s-20.36 32.98-39.56 51.45c-7.57 7.29-18.64 13.41-21.35 9.31-1.68-2.53.99-9.03 4.77-15.87 0-.02.02-.04.03-.06 5.26-9.52 12.63-19.65 13.33-20.6.04-.05.05-.07.05-.07s-49.9 12.6-57.42 13.96-17.34 3.54-18.9-1.51c-1.43-4.63 11.27-10.07 12.03-10.39-.82.23-18.09 4.97-20.65-1.49-1.9-4.81 15.96-13.91 16.49-14.17-.45.12-8.96 2.35-9.86-1.68-1.48-6.61 17.05-14.23 17.8-14.55-.42.11-7.3 1.72-7.79-1.98-1.22-9.16 62.5-34.57 81.97-41.71 19.5-7.15 88.2-36.43 89.59-34.46"/><defs><linearGradient id="a" x1="39.03" x2="620.48" y1="199.94" y2="199.94" gradientUnits="userSpaceOnUse"><stop stop-color="#2da44a"/><stop offset=".5" stop-color="#3dd6b3"/><stop offset="1" stop-color="#2c7fa3"/></linearGradient><linearGradient id="b" x1="435.55" x2="679.65" y1="539.94" y2="65.01" gradientUnits="userSpaceOnUse"><stop stop-color="#efefef"/><stop offset="1" stop-color="#eee"/></linearGradient></defs></svg>

<svg xmlns="http://www.w3.org/2000/svg" width="652" height="421" viewBox="0 0 652 421" fill="none"><path d="M40.59 177.77C24.05 249.63 140.24 421.79 324.54 397.57C410.25 386.31 410.69 342.96 482.17 298.16C524.77 271.45 582.07 255.62 605.16 210.05C625.10 170.72 625.06 124.72 608.05 91.84C569.80 17.91 477.44 -44.22 360.89 41.54C244.34 127.30 83.28 -7.55 40.59 177.77Z" fill="url(#paint0_linear_253_90)"/><path d="M439.34 377.40C485.02 339.82 532.29 299.54 583.36 287.14C636.04 274.34 640.37 292.09 636.96 317.55C633.54 343.00 603.75 397.50 532.14 413.87C460.52 430.24 396.59 412.58 439.34 377.40Z" fill="url(#paint1_linear_253_90)"/><path fill-rule="evenodd" clip-rule="evenodd" d="M552.99 142.44V179.88H553C547.58 178.79 541.96 179.16 536.72 180.94C531.93 182.58 527.62 185.39 524.20 189.12C520.77 192.85 518.33 197.37 517.10 202.28C515.94 206.82 515.83 211.56 516.78 216.15C517.74 220.74 519.72 225.05 522.59 228.75C525.46 232.45 529.14 235.44 533.35 237.51C537.55 239.57 542.17 240.65 546.86 240.65C548.92 240.65 550.98 240.44 553 240.03V277.48C553 280.70 552.37 283.90 551.13 286.88C549.90 289.85 548.09 292.56 545.81 294.84C543.53 297.12 540.82 298.93 537.84 300.16C534.87 301.39 531.67 302.03 528.45 302.03H491V302.04C492.10 296.62 491.73 291.00 489.94 285.76C488.30 280.97 485.49 276.67 481.76 273.24C478.04 269.81 473.51 267.37 468.6 266.14C464.06 264.98 459.32 264.87 454.73 265.83C450.15 266.78 445.84 268.77 442.14 271.64C438.44 274.51 435.44 278.19 433.38 282.39C431.31 286.60 430.24 291.22 430.23 295.90C430.24 297.96 430.44 300.02 430.85 302.04L393.41 302.03C379.86 302.03 368.86 291.05 368.86 277.49V240.04C366.84 240.45 364.78 240.66 362.72 240.66C358.04 240.66 353.42 239.58 349.21 237.52C345.00 235.46 341.33 232.46 338.46 228.76C335.58 225.06 333.60 220.75 332.64 216.16C331.69 211.58 331.80 206.83 332.96 202.29C334.19 197.38 336.63 192.86 340.06 189.13C343.48 185.40 347.79 182.59 352.58 180.96C357.82 179.17 363.44 178.80 368.86 179.90H368.85V142.45C368.85 139.22 369.48 136.03 370.72 133.05C371.95 130.07 373.76 127.37 376.04 125.09C378.32 122.81 381.03 121.00 384.00 119.77C386.98 118.53 390.18 117.90 393.4 117.90H430.85C430.44 115.88 430.24 113.82 430.23 111.76C430.24 107.08 431.31 102.45 433.38 98.25C435.44 94.04 438.44 90.36 442.14 87.49C445.84 84.62 450.15 82.64 454.73 81.68C459.32 80.73 464.06 80.84 468.6 82.00C473.51 83.23 478.03 85.67 481.76 89.10C485.49 92.53 488.3 96.83 489.94 101.62C491.73 106.86 492.10 112.47 491 117.90H528.45C534.96 117.90 541.21 120.49 545.81 125.09C550.41 129.69 553 135.94 553 142.45M139.89 164.51H177.46V164.5C176.36 169.94 176.73 175.58 178.52 180.83C180.16 185.64 182.98 189.96 186.72 193.40C190.46 196.84 195.00 199.28 199.93 200.52C204.48 201.68 209.24 201.79 213.84 200.83C218.44 199.88 222.76 197.88 226.48 195.00C230.19 192.12 233.20 188.43 235.26 184.21C237.34 180.00 238.41 175.36 238.42 170.66C238.41 168.59 238.21 166.53 237.80 164.5H275.37C278.6 164.5 281.80 165.14 284.79 166.38C287.78 167.61 290.50 169.43 292.78 171.71C295.07 174.00 296.88 176.72 298.12 179.71C299.36 182.69 299.99 185.90 299.99 189.13V226.70H300.01C294.56 225.6 288.93 225.97 283.67 227.76C278.87 229.40 274.55 232.22 271.11 235.96C267.67 239.70 265.23 244.24 263.99 249.17C262.83 253.72 262.72 258.48 263.68 263.08C264.63 267.68 266.62 272.00 269.50 275.72C272.38 279.43 276.07 282.44 280.29 284.51C284.51 286.57 289.15 287.65 293.85 287.66C295.92 287.66 297.98 287.45 300.01 287.04L299.99 324.60C300.00 338.20 288.98 349.22 275.38 349.23H237.81C238.22 351.25 238.43 353.32 238.43 355.39C238.42 360.09 237.34 364.72 235.28 368.94C233.21 373.16 230.20 376.85 226.49 379.73C222.78 382.61 218.45 384.60 213.85 385.56C209.25 386.52 204.49 386.41 199.94 385.24C195.01 384.01 190.47 381.56 186.74 378.13C183.00 374.69 180.18 370.37 178.53 365.56C176.74 360.31 176.37 354.67 177.47 349.23V349.24H139.91C136.67 349.24 133.47 348.60 130.48 347.37C127.49 346.13 124.78 344.31 122.49 342.03C120.20 339.74 118.39 337.02 117.15 334.04C115.91 331.05 115.28 327.84 115.28 324.61V287.04C113.25 287.45 111.19 287.66 109.12 287.66C104.42 287.65 99.78 286.58 95.56 284.51C91.34 282.44 87.65 279.43 84.77 275.72C81.89 272.00 79.90 267.68 78.94 263.08C77.99 258.48 78.10 253.72 79.26 249.17C80.50 244.24 82.95 239.71 86.39 235.97C89.82 232.23 94.14 229.41 98.94 227.76C104.20 225.97 109.83 225.6 115.28 226.70V189.13C115.28 185.90 115.91 182.69 117.15 179.71C118.39 176.72 120.20 174.00 122.49 171.71C124.78 169.43 127.49 167.61 130.48 166.38C133.47 165.14 136.67 164.5 139.91 164.5" fill="#EFEFEF"/><path d="M1.66 391.39C0.27 389.41 -0.71 329.31 0.66 326.91C2.03 324.51 62.20 307.04 62.20 307.04C62.20 307.04 82.57 273.85 101.77 255.26C109.34 247.92 120.41 241.76 123.12 245.88C124.80 248.44 122.13 254.98 118.35 261.86C118.34 261.88 118.33 261.90 118.32 261.92C113.06 271.50 105.69 281.69 104.99 282.65C104.97 282.67 104.95 282.69 104.94 282.72C104.94 282.72 154.85 270.04 162.37 268.68C169.89 267.30 179.71 265.11 181.27 270.19C182.71 274.86 170.00 280.32 169.24 280.64C170.06 280.42 187.33 275.65 189.89 282.15C191.79 286.99 173.93 296.15 173.40 296.41C173.85 296.29 182.36 294.05 183.26 298.09C184.74 304.75 166.21 312.42 165.45 312.74C165.87 312.63 172.76 311.01 173.25 314.73C174.47 323.95 110.74 349.52 91.27 356.71C71.77 363.90 3.05 393.36 1.66 391.39ZM650.34 61.14C651.73 63.10 652.71 122.82 651.34 125.21C649.97 127.59 589.81 144.96 589.81 144.96C589.81 144.96 569.45 177.94 550.25 196.41C542.68 203.7 531.61 209.82 528.9 205.72C527.22 203.19 529.89 196.69 533.67 189.85C533.67 189.83 533.69 189.81 533.70 189.79C538.96 180.27 546.33 170.14 547.03 169.19C547.07 169.14 547.08 169.12 547.08 169.12C547.08 169.12 497.18 181.72 489.66 183.08C482.14 184.44 472.32 186.62 470.76 181.57C469.33 176.94 482.03 171.50 482.79 171.18C481.97 171.41 464.70 176.15 462.14 169.69C460.24 164.88 478.10 155.78 478.63 155.52C478.18 155.64 469.67 157.87 468.77 153.84C467.29 147.23 485.82 139.61 486.57 139.29C486.15 139.40 479.27 141.01 478.78 137.31C477.56 128.15 541.28 102.74 560.75 95.60C580.25 88.45 648.95 59.17 650.34 61.14Z" fill="#FFB780"/><defs><linearGradient id="paint0_linear_253_90" x1="39.03" y1="199.94" x2="620.48" y2="199.94" gradientUnits="userSpaceOnUse"><stop stop-color="#2DA44A"/><stop offset="0.5" stop-color="#3DD6B3"/><stop offset="1" stop-color="#2C7FA3"/></linearGradient><linearGradient id="paint1_linear_253_90" x1="435.55" y1="539.94" x2="679.65" y2="65.01" gradientUnits="userSpaceOnUse"><stop stop-color="#EFEFEF"/><stop offset="1" stop-color="#EEEEEE"/></linearGradient></defs></svg>
